X:1
T: the Graf Spee
S:Paul O'Shaughnessy
Z:Juergen.Gier@post.rwth-aachen.de
M:C|
L:1/8
K:C
EDCD EG (3GGG | AGcG AGcG | EDCD EG (3GGG | AGcG ED (3DDD :| \
efed cBcA | GE (3EEE GAcd | efed cBcA | GECE EDD2 | \
efed cBcA | GE (3EEE GAcd | eaag eged | cAGE EDD2 |] \
eg~g2 gedg | eaa^g ~a3=g | eged cBcd | eaag egdg :| \
eccB cAGE | GAcd cAGE | GAcd {e}dcdc | AGcG EDDg | \
ec~c2 cGAG | ~c3d cAGE | GAcd {e}dcdc | AGcG EDDg |: \
egcg egcg | fada fada | egcg ec~c2 | ABcd ed~d2 | \
e~a3 gedg | eccB cAGE | GAcd {e}dcdc |1 AGcG EDDg :|2 AGcG EDDF |]
